X: 869
T: Sandy Hook
B: jims roots
M:2/4
L:1/16
Q: 1/4=100
K:D
V:1 
(=f2 | "D"^f2a)f edBA | FGAB A2de | (fa)fe dBAF | "A"A,CEF E2FE |
"D"D2 af edAF | "G"EGBc B2ef | "A"gfga b2c2 | "D"Adde [F2d] :|
|:"G"G2Bd g2g2 | "D"fgaf "G"g2fg | "D"abag fdef | "G"gage d2BA |
        "G"G2Bd g2g2 | "D"fgaf "G"g2fg | "D"(a2d'2) e2f2 | "G"[Bg][Bf][Bg][Ba] [B4g] :|]
% abcbook-tune_id 6298c287b420af75be69d6ff


% abcbook-boost 0
% abcbook-tablature 
% abcbook-transpose 
% abcbook-lastupdated 1654178440146
% abcbook-soundfonts 
% abcbook-repeats 1


